Newaita-dark/apps/64/com.github.mdh34.quickdocs.svg

<svg height="64pt" viewBox="0 0 64 64" width="64pt" xmlns="http://www.w3.org/2000/svg" xmlns:xlink="http://www.w3.org/1999/xlink"><linearGradient id="a" gradientUnits="userSpaceOnUse" x1="31.75304" x2="31.75304" y1="56.067872" y2="58.71396000006"><stop offset="0" stop-opacity=".27451"/><stop offset="1" stop-opacity="0"/></linearGradient><linearGradient id="b"><stop offset="0" stop-opacity=".313726"/><stop offset=".222222" stop-opacity=".27451"/><stop offset="1" stop-opacity="0"/></linearGradient><radialGradient id="c" cx="450.908936" cy="189.579361" gradientTransform="matrix(.00000035 -.156265 -.281277 -.0000002 97.64609 127.190665)" gradientUnits="userSpaceOnUse" r="21.166656" xlink:href="#b"/><radialGradient id="d" cx="450.908936" cy="189.579361" gradientTransform="matrix(-.00000035 .156265 .281277 .0000002 -35.463065 -15.054958)" gradientUnits="userSpaceOnUse" r="21.166656" xlink:href="#b"/><radialGradient id="e" cx="450.908936" cy="189.579361" gradientTransform="matrix(-.00000035 -.156265 .281277 -.0000002 -35.463065 127.190665)" gradientUnits="userSpaceOnUse" r="21.166656" xlink:href="#b"/><radialGradient id="f" cx="450.908936" cy="189.579361" gradientTransform="matrix(.00000035 .156265 -.281277 .0000002 97.646086 -15.054959)" gradientUnits="userSpaceOnUse" r="21.166656" xlink:href="#b"/><linearGradient id="g" gradientUnits="userSpaceOnUse" x1="31.091534" x2="31.091534" y1="56.06789790428" y2="5.79222438278"><stop offset="0" stop-color="#78909c"/><stop offset="1" stop-color="#90a4ae"/></linearGradient><linearGradient id="h" gradientUnits="userSpaceOnUse" x1="30.430011" x2="31.091533" y1="39.52984790428" y2="21.66875188664"><stop offset="0" stop-color="#e0e0e0"/><stop offset="1" stop-color="#eee"/></linearGradient><path d="m17.199219 56.066406h27.785156v2.648438h-27.785156zm0 0" fill="url(#a)"/><path d="m44.984375 56.066406h5.292969v-2.644531h-5.292969zm0 0" fill="url(#c)"/><path d="m17.199219 56.066406h-5.292969v2.648438h5.292969zm0 0" fill="url(#d)"/><path d="m17.199219 56.066406h-5.292969v-2.644531h5.292969zm0 0" fill="url(#e)"/><path d="m44.984375 56.066406h5.292969v2.648438h-5.292969zm0 0" fill="url(#f)"/><path d="m14.554688 5.792969c-1.46875 0-2.648438 1.179687-2.648438 2.644531v44.984375c0 1.464844 1.179688 2.644531 2.648438 2.644531h33.074218c1.464844 0 2.648438-1.179687 2.648438-2.644531v-35.722656l-11.910156-11.90625zm26.460937 0 9.261719 9.261719v-6.617188c0-1.464844-1.183594-2.644531-2.648438-2.644531zm0 0" fill="url(#g)"/><path d="m41.015625 5.792969 9.261719 9.261719v-6.617188c0-1.464844-1.183594-2.644531-2.648438-2.644531zm0 0" fill="url(#g)"/><path d="m14.554688 5.792969c-1.46875 0-2.648438 1.179687-2.648438 2.644531v.664062c0-1.46875 1.179688-2.648437 2.648438-2.648437h23.8125l11.910156 11.90625v-.660156l-11.910156-11.90625zm26.460937 0 .660156.660156h5.953125c1.464844 0 2.648438 1.179687 2.648438 2.648437v-.664062c0-1.464844-1.183594-2.644531-2.648438-2.644531zm0 0" fill="#fff" fill-opacity=".392157"/><path d="m41.015625 5.792969 9.261719 9.261719v-.984376l-8.28125-8.277343zm-29.109375 46.648437v.980469c0 1.464844 1.179688 2.644531 2.648438 2.644531h33.074218c1.464844 0 2.648438-1.179687 2.648438-2.644531v-.980469c0 1.464844-1.183594 2.644532-2.648438 2.644532h-33.074218c-1.46875 0-2.648438-1.179688-2.648438-2.644532zm0 0" fill-opacity=".235294"/><path d="m14.554688 5.605469c-1.566407 0-2.835938 1.265625-2.835938 2.832031v44.984375c0 1.566406 1.269531 2.832031 2.835938 2.832031h33.074218c1.566406 0 2.835938-1.265625 2.835938-2.832031v-35.722656c0-.050781-.019532-.097657-.054688-.132813l-11.910156-11.90625c-.035156-.035156-.082031-.054687-.132812-.054687zm26.460937 0c-.078125 0-.144531.042969-.175781.113281-.027344.070312-.011719.152344.042968.207031l9.261719 9.261719c.050781.050781.132813.066406.203125.039062.070313-.027343.117188-.097656.117188-.171874v-6.617188c0-1.566406-1.269532-2.832031-2.835938-2.832031zm-26.460937.375h23.734374l11.800782 11.796875v35.644531c0 1.363281-1.09375 2.457031-2.460938 2.457031h-33.074218c-1.367188 0-2.460938-1.09375-2.460938-2.457031v-44.984375c0-1.363281 1.09375-2.457031 2.460938-2.457031zm26.914062 0h6.160156c1.367188 0 2.460938 1.09375 2.460938 2.457031v6.164062zm0 0" fill="#212121"/><path d="m19.84375 19.023438c-.730469 0-1.320312.589843-1.320312 1.320312 0 .734375.589843 1.324219 1.320312 1.324219h5.292969v-2.644531zm7.941406 0v2.644531h14.550782c.734374 0 1.324218-.589844 1.324218-1.324219 0-.730469-.589844-1.320312-1.324218-1.320312zm-7.941406 5.292968c-.730469 0-1.320312.589844-1.320312 1.320313 0 .734375.589843 1.324219 1.320312 1.324219h9.261719v-2.644532zm13.230469 0v2.644532h9.261719c.734374 0 1.324218-.589844 1.324218-1.324219 0-.730469-.589844-1.320313-1.324218-1.320313zm-13.230469 5.289063c-.730469 0-1.320312.589843-1.320312 1.324219 0 .734374.589843 1.324218 1.320312 1.324218h3.972656v-2.648437zm6.617188 0v2.648437h9.261718v-2.648437zm11.90625 0v2.648437h3.96875c.734374 0 1.324218-.589844 1.324218-1.324218 0-.734376-.589844-1.324219-1.324218-1.324219zm-18.523438 5.292969c-.730469 0-1.320312.589843-1.320312 1.324218s.589843 1.324219 1.320312 1.324219h7.941406v-2.648437zm11.910156 0v2.648437h5.953125v-2.648437zm8.597656 0v2.648437h1.984376c.734374 0 1.324218-.589844 1.324218-1.324219s-.589844-1.324218-1.324218-1.324218zm-20.507812 5.292968c-.730469 0-1.320312.589844-1.320312 1.324219 0 .730469.589843 1.320313 1.320312 1.320313h12.570312v-2.644532zm15.21875 0v2.644532h7.273438c.734374 0 1.324218-.589844 1.324218-1.320313 0-.734375-.589844-1.324219-1.324218-1.324219zm0 0" fill="#fff" fill-opacity=".392157"/><path d="m25.136719 21.667969c-1.097657 0-1.984375.8125-1.984375 1.820312v13.394531c0 .996094.726562 1.816407 1.683594 1.960938.097656.015625.199218.023438.300781.023438h4.632812v-3.96875h-2.648437v-9.261719h2.648437v-3.96875zm5.953125 0v3.96875h1.324218c2.566407 0 4.632813 2.066406 4.632813 4.632812 0 2.5625-2.066406 4.628907-4.632813 4.628907h-1.324218v3.644531c0 .109375-.003906.21875-.007813.324219h1.332031c4.765626 0 8.601563-3.835938 8.601563-8.597657 0-4.765625-3.835937-8.601562-8.601563-8.601562zm0 0" fill="url(#h)"/><path d="m25.136719 21.667969c-1.097657 0-1.984375.8125-1.984375 1.820312v.660157c0-1.007813.886718-1.816407 1.984375-1.816407h4.632812v-.664062zm5.953125 0v.664062h1.324218c4.652344 0 8.421876 3.65625 8.59375 8.265625.003907-.109375.007813-.21875.007813-.328125 0-4.765625-3.835937-8.601562-8.601563-8.601562zm5.945312 8.929687c-.171875 2.410156-2.167968 4.300782-4.621094 4.300782h-1.324218v.664062h1.324218c2.566407 0 4.632813-2.066406 4.632813-4.632812 0-.109376-.003906-.222657-.011719-.332032zm-9.914062 4.300782v.664062h2.648437v-.664062zm3.96875 3.644531c0 .109375-.003906.21875-.007813.324219h.007813zm0 0" fill="#fff" fill-opacity=".812903"/><path d="m27.121094 25.636719v.828125h2.648437v-.828125zm3.96875 0v.828125h1.324218c2.425782 0 4.40625 1.847656 4.613282 4.21875.011718-.136719.019531-.277344.019531-.414063 0-2.566406-2.066406-4.632812-4.632813-4.632812zm9.914062 5.046875c-.214844 4.570312-3.964844 8.183594-8.589844 8.183594h-1.324218v.503906c0 .109375-.003906.21875-.007813.324218h1.332031c4.765626 0 8.601563-3.835937 8.601563-8.601562 0-.136719-.003906-.273438-.011719-.410156zm-17.851562 6.199218v.828126c0 .996093.726562 1.816406 1.683594 1.960937.097656.015625.199218.023437.300781.023437h4.632812v-.828124h-4.632812c-.101563 0-.203125-.007813-.300781-.023438-.957032-.144531-1.683594-.964844-1.683594-1.960938zm0 0" fill-opacity=".235294"/><path d="m201.074548-41.672802c-8.780411 0-15.873484 6.499379-15.873484 14.56111v107.146018c0 7.967989 5.811945 14.529862 13.467464 15.686002.781176.124988 1.593598.187482 2.40602.187482h37.058961v-31.746969h-21.185477v-74.086675h21.185477v-31.746968zm47.620453 0v31.746968h10.592738c20.52929 0 37.058961 16.529672 37.058961 37.058961 0 20.498043-16.529671 37.027714-37.058961 37.027714h-10.592738v29.153466c0 .874917-.031247 1.749833-.062494 2.593503h10.655232c38.12136 0 68.80593-30.68457 68.80593-68.774683 0-38.121359-30.68457-68.805929-68.80593-68.805929zm0 0" fill="none" stroke="#212121" stroke-linecap="round" stroke-linejoin="round" stroke-width="3" transform="matrix(.125012 0 0 .125012 0 26.877566)"/></svg>

<?xml version="1.0" encoding="UTF-8"?>
<svg xmlns="http://www.w3.org/2000/svg" xmlns:xlink="http://www.w3.org/1999/xlink" width="64pt" height="64pt" viewBox="0 0 64 64" version="1.1">
<defs>
<linearGradient id="linear0" gradientUnits="userSpaceOnUse" x1="254" y1="233.5" x2="254" y2="254.666672" gradientTransform="matrix(0.125012,0,0,0.125012,-0.00000763012,26.87757)">
<stop offset="0" style="stop-color:rgb(0%,0%,0%);stop-opacity:0.27451;"/>
<stop offset="1" style="stop-color:rgb(0%,0%,0%);stop-opacity:0;"/>
</linearGradient>
<radialGradient id="radial0" gradientUnits="userSpaceOnUse" cx="450.908936" cy="189.579361" fx="450.908936" fy="189.579361" r="21.166656" gradientTransform="matrix(0.000000348341,-0.156265,-0.281277,-0.000000203077,97.64609,127.190665)">
<stop offset="0" style="stop-color:rgb(0%,0%,0%);stop-opacity:0.313726;"/>
<stop offset="0.222222" style="stop-color:rgb(0%,0%,0%);stop-opacity:0.27451;"/>
<stop offset="1" style="stop-color:rgb(0%,0%,0%);stop-opacity:0;"/>
</radialGradient>
<radialGradient id="radial1" gradientUnits="userSpaceOnUse" cx="450.908936" cy="189.579361" fx="450.908936" fy="189.579361" r="21.166656" gradientTransform="matrix(-0.000000348341,0.156265,0.281277,0.000000203077,-35.463065,-15.054958)">
<stop offset="0" style="stop-color:rgb(0%,0%,0%);stop-opacity:0.313726;"/>
<stop offset="0.222222" style="stop-color:rgb(0%,0%,0%);stop-opacity:0.27451;"/>
<stop offset="1" style="stop-color:rgb(0%,0%,0%);stop-opacity:0;"/>
</radialGradient>
<radialGradient id="radial2" gradientUnits="userSpaceOnUse" cx="450.908936" cy="189.579361" fx="450.908936" fy="189.579361" r="21.166656" gradientTransform="matrix(-0.000000348341,-0.156265,0.281277,-0.000000203077,-35.463065,127.190665)">
<stop offset="0" style="stop-color:rgb(0%,0%,0%);stop-opacity:0.313726;"/>
<stop offset="0.222222" style="stop-color:rgb(0%,0%,0%);stop-opacity:0.27451;"/>
<stop offset="1" style="stop-color:rgb(0%,0%,0%);stop-opacity:0;"/>
</radialGradient>
<radialGradient id="radial3" gradientUnits="userSpaceOnUse" cx="450.908936" cy="189.579361" fx="450.908936" fy="189.579361" r="21.166656" gradientTransform="matrix(0.000000348341,0.156265,-0.281277,0.000000203077,97.646086,-15.054959)">
<stop offset="0" style="stop-color:rgb(0%,0%,0%);stop-opacity:0.313726;"/>
<stop offset="0.222222" style="stop-color:rgb(0%,0%,0%);stop-opacity:0.27451;"/>
<stop offset="1" style="stop-color:rgb(0%,0%,0%);stop-opacity:0;"/>
</radialGradient>
<linearGradient id="linear1" gradientUnits="userSpaceOnUse" x1="940" y1="1695.118164" x2="940" y2="175.118118" gradientTransform="matrix(0.0330761,0,0,0.0330761,0,0)">
<stop offset="0" style="stop-color:rgb(47.058824%,56.470591%,61.176473%);stop-opacity:1;"/>
<stop offset="1" style="stop-color:rgb(56.470591%,64.313728%,68.235296%);stop-opacity:1;"/>
</linearGradient>
<linearGradient id="linear2" gradientUnits="userSpaceOnUse" x1="940" y1="1695.118164" x2="940" y2="175.118118" gradientTransform="matrix(0.0330761,0,0,0.0330761,0,0)">
<stop offset="0" style="stop-color:rgb(47.058824%,56.470591%,61.176473%);stop-opacity:1;"/>
<stop offset="1" style="stop-color:rgb(56.470591%,64.313728%,68.235296%);stop-opacity:1;"/>
</linearGradient>
<linearGradient id="linear3" gradientUnits="userSpaceOnUse" x1="900" y1="1195.118164" x2="920" y2="655.118103" gradientTransform="matrix(0.0330761,0,0,0.0330761,0.661521,0)">
<stop offset="0" style="stop-color:rgb(87.843138%,87.843138%,87.843138%);stop-opacity:1;"/>
<stop offset="1" style="stop-color:rgb(93.333334%,93.333334%,93.333334%);stop-opacity:1;"/>
</linearGradient>
</defs>
<g id="surface1">
<path style=" stroke:none;fill-rule:nonzero;fill:url(#linear0);" d="M 17.199219 56.066406 L 44.984375 56.066406 L 44.984375 58.714844 L 17.199219 58.714844 Z M 17.199219 56.066406 "/>
<path style=" stroke:none;fill-rule:nonzero;fill:url(#radial0);" d="M 44.984375 56.066406 L 50.277344 56.066406 L 50.277344 53.421875 L 44.984375 53.421875 Z M 44.984375 56.066406 "/>
<path style=" stroke:none;fill-rule:nonzero;fill:url(#radial1);" d="M 17.199219 56.066406 L 11.90625 56.066406 L 11.90625 58.714844 L 17.199219 58.714844 Z M 17.199219 56.066406 "/>
<path style=" stroke:none;fill-rule:nonzero;fill:url(#radial2);" d="M 17.199219 56.066406 L 11.90625 56.066406 L 11.90625 53.421875 L 17.199219 53.421875 Z M 17.199219 56.066406 "/>
<path style=" stroke:none;fill-rule:nonzero;fill:url(#radial3);" d="M 44.984375 56.066406 L 50.277344 56.066406 L 50.277344 58.714844 L 44.984375 58.714844 Z M 44.984375 56.066406 "/>
<path style=" stroke:none;fill-rule:nonzero;fill:url(#linear1);" d="M 14.554688 5.792969 C 13.085938 5.792969 11.90625 6.972656 11.90625 8.4375 L 11.90625 53.421875 C 11.90625 54.886719 13.085938 56.066406 14.554688 56.066406 L 47.628906 56.066406 C 49.09375 56.066406 50.277344 54.886719 50.277344 53.421875 L 50.277344 17.699219 L 38.367188 5.792969 Z M 41.015625 5.792969 L 50.277344 15.054688 L 50.277344 8.4375 C 50.277344 6.972656 49.09375 5.792969 47.628906 5.792969 Z M 41.015625 5.792969 "/>
<path style=" stroke:none;fill-rule:nonzero;fill:url(#linear2);" d="M 41.015625 5.792969 L 50.277344 15.054688 L 50.277344 8.4375 C 50.277344 6.972656 49.09375 5.792969 47.628906 5.792969 Z M 41.015625 5.792969 "/>
<path style=" stroke:none;fill-rule:nonzero;fill:rgb(100%,100%,100%);fill-opacity:0.392157;" d="M 14.554688 5.792969 C 13.085938 5.792969 11.90625 6.972656 11.90625 8.4375 L 11.90625 9.101562 C 11.90625 7.632812 13.085938 6.453125 14.554688 6.453125 L 38.367188 6.453125 L 50.277344 18.359375 L 50.277344 17.699219 L 38.367188 5.792969 Z M 41.015625 5.792969 L 41.675781 6.453125 L 47.628906 6.453125 C 49.09375 6.453125 50.277344 7.632812 50.277344 9.101562 L 50.277344 8.4375 C 50.277344 6.972656 49.09375 5.792969 47.628906 5.792969 Z M 41.015625 5.792969 "/>
<path style=" stroke:none;fill-rule:nonzero;fill:rgb(0%,0%,0%);fill-opacity:0.235294;" d="M 41.015625 5.792969 L 50.277344 15.054688 L 50.277344 14.070312 L 41.996094 5.792969 Z M 11.90625 52.441406 L 11.90625 53.421875 C 11.90625 54.886719 13.085938 56.066406 14.554688 56.066406 L 47.628906 56.066406 C 49.09375 56.066406 50.277344 54.886719 50.277344 53.421875 L 50.277344 52.441406 C 50.277344 53.90625 49.09375 55.085938 47.628906 55.085938 L 14.554688 55.085938 C 13.085938 55.085938 11.90625 53.90625 11.90625 52.441406 Z M 11.90625 52.441406 "/>
<path style=" stroke:none;fill-rule:nonzero;fill:rgb(12.941177%,12.941177%,12.941177%);fill-opacity:1;" d="M 14.554688 5.605469 C 12.988281 5.605469 11.71875 6.871094 11.71875 8.4375 L 11.71875 53.421875 C 11.71875 54.988281 12.988281 56.253906 14.554688 56.253906 L 47.628906 56.253906 C 49.195312 56.253906 50.464844 54.988281 50.464844 53.421875 L 50.464844 17.699219 C 50.464844 17.648438 50.445312 17.601562 50.410156 17.566406 L 38.5 5.660156 C 38.464844 5.625 38.417969 5.605469 38.367188 5.605469 Z M 41.015625 5.605469 C 40.9375 5.605469 40.871094 5.648438 40.839844 5.71875 C 40.8125 5.789062 40.828125 5.871094 40.882812 5.925781 L 50.144531 15.1875 C 50.195312 15.238281 50.277344 15.253906 50.347656 15.226562 C 50.417969 15.199219 50.464844 15.128906 50.464844 15.054688 L 50.464844 8.4375 C 50.464844 6.871094 49.195312 5.605469 47.628906 5.605469 Z M 14.554688 5.980469 L 38.289062 5.980469 L 50.089844 17.777344 L 50.089844 53.421875 C 50.089844 54.785156 48.996094 55.878906 47.628906 55.878906 L 14.554688 55.878906 C 13.1875 55.878906 12.09375 54.785156 12.09375 53.421875 L 12.09375 8.4375 C 12.09375 7.074219 13.1875 5.980469 14.554688 5.980469 Z M 41.46875 5.980469 L 47.628906 5.980469 C 48.996094 5.980469 50.089844 7.074219 50.089844 8.4375 L 50.089844 14.601562 Z M 41.46875 5.980469 "/>
<path style=" stroke:none;fill-rule:nonzero;fill:rgb(100%,100%,100%);fill-opacity:0.392157;" d="M 19.84375 19.023438 C 19.113281 19.023438 18.523438 19.613281 18.523438 20.34375 C 18.523438 21.078125 19.113281 21.667969 19.84375 21.667969 L 25.136719 21.667969 L 25.136719 19.023438 Z M 27.785156 19.023438 L 27.785156 21.667969 L 42.335938 21.667969 C 43.070312 21.667969 43.660156 21.078125 43.660156 20.34375 C 43.660156 19.613281 43.070312 19.023438 42.335938 19.023438 Z M 19.84375 24.316406 C 19.113281 24.316406 18.523438 24.90625 18.523438 25.636719 C 18.523438 26.371094 19.113281 26.960938 19.84375 26.960938 L 29.105469 26.960938 L 29.105469 24.316406 Z M 33.074219 24.316406 L 33.074219 26.960938 L 42.335938 26.960938 C 43.070312 26.960938 43.660156 26.371094 43.660156 25.636719 C 43.660156 24.90625 43.070312 24.316406 42.335938 24.316406 Z M 19.84375 29.605469 C 19.113281 29.605469 18.523438 30.195312 18.523438 30.929688 C 18.523438 31.664062 19.113281 32.253906 19.84375 32.253906 L 23.816406 32.253906 L 23.816406 29.605469 Z M 26.460938 29.605469 L 26.460938 32.253906 L 35.722656 32.253906 L 35.722656 29.605469 Z M 38.367188 29.605469 L 38.367188 32.253906 L 42.335938 32.253906 C 43.070312 32.253906 43.660156 31.664062 43.660156 30.929688 C 43.660156 30.195312 43.070312 29.605469 42.335938 29.605469 Z M 19.84375 34.898438 C 19.113281 34.898438 18.523438 35.488281 18.523438 36.222656 C 18.523438 36.957031 19.113281 37.546875 19.84375 37.546875 L 27.785156 37.546875 L 27.785156 34.898438 Z M 31.753906 34.898438 L 31.753906 37.546875 L 37.707031 37.546875 L 37.707031 34.898438 Z M 40.351562 34.898438 L 40.351562 37.546875 L 42.335938 37.546875 C 43.070312 37.546875 43.660156 36.957031 43.660156 36.222656 C 43.660156 35.488281 43.070312 34.898438 42.335938 34.898438 Z M 19.84375 40.191406 C 19.113281 40.191406 18.523438 40.78125 18.523438 41.515625 C 18.523438 42.246094 19.113281 42.835938 19.84375 42.835938 L 32.414062 42.835938 L 32.414062 40.191406 Z M 35.0625 40.191406 L 35.0625 42.835938 L 42.335938 42.835938 C 43.070312 42.835938 43.660156 42.246094 43.660156 41.515625 C 43.660156 40.78125 43.070312 40.191406 42.335938 40.191406 Z M 35.0625 40.191406 "/>
<path style=" stroke:none;fill-rule:nonzero;fill:url(#linear3);" d="M 25.136719 21.667969 C 24.039062 21.667969 23.152344 22.480469 23.152344 23.488281 L 23.152344 36.882812 C 23.152344 37.878906 23.878906 38.699219 24.835938 38.84375 C 24.933594 38.859375 25.035156 38.867188 25.136719 38.867188 L 29.769531 38.867188 L 29.769531 34.898438 L 27.121094 34.898438 L 27.121094 25.636719 L 29.769531 25.636719 L 29.769531 21.667969 Z M 31.089844 21.667969 L 31.089844 25.636719 L 32.414062 25.636719 C 34.980469 25.636719 37.046875 27.703125 37.046875 30.269531 C 37.046875 32.832031 34.980469 34.898438 32.414062 34.898438 L 31.089844 34.898438 L 31.089844 38.542969 C 31.089844 38.652344 31.085938 38.761719 31.082031 38.867188 L 32.414062 38.867188 C 37.179688 38.867188 41.015625 35.03125 41.015625 30.269531 C 41.015625 25.503906 37.179688 21.667969 32.414062 21.667969 Z M 31.089844 21.667969 "/>
<path style=" stroke:none;fill-rule:nonzero;fill:rgb(100%,100%,100%);fill-opacity:0.812903;" d="M 25.136719 21.667969 C 24.039062 21.667969 23.152344 22.480469 23.152344 23.488281 L 23.152344 24.148438 C 23.152344 23.140625 24.039062 22.332031 25.136719 22.332031 L 29.769531 22.332031 L 29.769531 21.667969 Z M 31.089844 21.667969 L 31.089844 22.332031 L 32.414062 22.332031 C 37.066406 22.332031 40.835938 25.988281 41.007812 30.597656 C 41.011719 30.488281 41.015625 30.378906 41.015625 30.269531 C 41.015625 25.503906 37.179688 21.667969 32.414062 21.667969 Z M 37.035156 30.597656 C 36.863281 33.007812 34.867188 34.898438 32.414062 34.898438 L 31.089844 34.898438 L 31.089844 35.5625 L 32.414062 35.5625 C 34.980469 35.5625 37.046875 33.496094 37.046875 30.929688 C 37.046875 30.820312 37.042969 30.707031 37.035156 30.597656 Z M 27.121094 34.898438 L 27.121094 35.5625 L 29.769531 35.5625 L 29.769531 34.898438 Z M 31.089844 38.542969 C 31.089844 38.652344 31.085938 38.761719 31.082031 38.867188 L 31.089844 38.867188 Z M 31.089844 38.542969 "/>
<path style=" stroke:none;fill-rule:nonzero;fill:rgb(0%,0%,0%);fill-opacity:0.235294;" d="M 27.121094 25.636719 L 27.121094 26.464844 L 29.769531 26.464844 L 29.769531 25.636719 Z M 31.089844 25.636719 L 31.089844 26.464844 L 32.414062 26.464844 C 34.839844 26.464844 36.820312 28.3125 37.027344 30.683594 C 37.039062 30.546875 37.046875 30.40625 37.046875 30.269531 C 37.046875 27.703125 34.980469 25.636719 32.414062 25.636719 Z M 41.003906 30.683594 C 40.789062 35.253906 37.039062 38.867188 32.414062 38.867188 L 31.089844 38.867188 L 31.089844 39.371094 C 31.089844 39.480469 31.085938 39.589844 31.082031 39.695312 L 32.414062 39.695312 C 37.179688 39.695312 41.015625 35.859375 41.015625 31.09375 C 41.015625 30.957031 41.011719 30.820312 41.003906 30.683594 Z M 23.152344 36.882812 L 23.152344 37.710938 C 23.152344 38.707031 23.878906 39.527344 24.835938 39.671875 C 24.933594 39.6875 25.035156 39.695312 25.136719 39.695312 L 29.769531 39.695312 L 29.769531 38.867188 L 25.136719 38.867188 C 25.035156 38.867188 24.933594 38.859375 24.835938 38.84375 C 23.878906 38.699219 23.152344 37.878906 23.152344 36.882812 Z M 23.152344 36.882812 "/>
<path style="fill:none;stroke-width:3;stroke-linecap:round;stroke-linejoin:round;stroke:rgb(12.941177%,12.941177%,12.941177%);stroke-opacity:1;stroke-miterlimit:4;" d="M 201.074548 -41.672802 C 192.294137 -41.672802 185.201064 -35.173423 185.201064 -27.111692 L 185.201064 80.034326 C 185.201064 88.002315 191.013009 94.564188 198.668528 95.720328 C 199.449704 95.845316 200.262126 95.90781 201.074548 95.90781 L 238.133509 95.90781 L 238.133509 64.160841 L 216.948032 64.160841 L 216.948032 -9.925834 L 238.133509 -9.925834 L 238.133509 -41.672802 Z M 248.695001 -41.672802 L 248.695001 -9.925834 L 259.287739 -9.925834 C 279.817029 -9.925834 296.3467 6.603838 296.3467 27.133127 C 296.3467 47.63117 279.817029 64.160841 259.287739 64.160841 L 248.695001 64.160841 L 248.695001 93.314307 C 248.695001 94.189224 248.663754 95.06414 248.632507 95.90781 L 259.287739 95.90781 C 297.409099 95.90781 328.093669 65.22324 328.093669 27.133127 C 328.093669 -10.988232 297.409099 -41.672802 259.287739 -41.672802 Z M 248.695001 -41.672802 " transform="matrix(0.125012,0,0,0.125012,0,26.877566)"/>
</g>
</svg>
